lib/brands/icons/ms-yammer-alt.svg

<svg xmlns="http://www.w3.org/2000/svg" fill="none" aria-hidden="true" viewBox="0 0 48 48"><g id="ms-yammer-alt-Icon"><path id="Vector" fill="#265495" d="M40.5611 22.4896C40.4856 22.4858 40.4064 22.4851 40.3238 22.4851C38.9397 22.4877 28.9874 23.5793 29.4868 24.5935C29.9843 25.5971 36.1127 26.0842 40.4804 26.086C41.3958 25.9272 42.0589 25.1 41.9959 24.1541C41.9369 23.3239 41.3346 22.6604 40.5611 22.4896ZM37.1862 33.0153C33.3555 30.9167 27.749 28.3934 26.8298 29.0363C25.9043 29.684 34.1031 35.4297 35.3159 36.097C35.3899 36.1371 35.459 36.1739 35.5254 36.2092C36.2877 36.4311 37.1333 36.1394 37.585 35.4383C38.0956 34.6404 37.9113 33.5951 37.1862 33.0153ZM37.1862 15.7409C37.9113 15.1612 38.0956 14.1158 37.585 13.3187C37.1333 12.6172 36.2877 12.327 35.5254 12.5481C35.459 12.5823 35.3899 12.6195 35.3159 12.6593C34.1031 13.3277 25.9043 19.0723 26.8298 19.7207C27.749 20.3632 33.3555 17.8403 37.1862 15.7409ZM14.2138 31.1213C13.0738 34.34 12.0187 35.8473 9.59452 35.8473C9.36021 35.8473 8.54465 35.7992 8.49208 35.7943C7.70994 35.7541 6.97961 36.2629 6.76896 37.0492C6.52715 37.9425 7.0517 38.8628 7.94011 39.1174C8.58257 39.2304 9.24231 39.2721 9.83408 39.2721C14.3024 39.2721 15.7796 36.6996 17.2549 32.944L25.9722 11.1975C26.2865 10.2122 25.739 9.15898 24.7598 8.84545C23.7974 8.53943 22.7783 9.04821 22.4336 9.98318L16.3083 26.1724H16.2121L9.76874 9.86152C9.3328 8.9397 8.2544 8.48986 7.2815 8.85446C6.28345 9.22882 5.77091 10.3207 6.09871 11.3248L14.2138 31.1213Z"/></g></svg>

<svg xmlns="http://www.w3.org/2000/svg" fill="none" aria-hidden="true" viewBox="0 0 48 48"><path fill="#265495" d="M40.561 22.49a4.772 4.772 0 0 0-.237-.005c-1.384.003-11.337 1.094-10.837 2.108.497 1.004 6.626 1.491 10.993 1.493a1.836 1.836 0 0 0 1.516-1.932 1.839 1.839 0 0 0-1.435-1.664Zm-3.375 10.525c-3.83-2.098-9.437-4.622-10.356-3.979-.926.648 7.273 6.394 8.486 7.061l.21.112a1.839 1.839 0 0 0 2.059-.77 1.837 1.837 0 0 0-.399-2.424Zm0-17.274c.725-.58.91-1.625.399-2.422a1.839 1.839 0 0 0-2.06-.77c-.066.033-.135.07-.21.11-1.212.669-9.41 6.413-8.485 7.062.919.642 6.526-1.88 10.356-3.98ZM14.214 31.12c-1.14 3.219-2.195 4.726-4.62 4.726-.234 0-1.05-.048-1.102-.053a1.696 1.696 0 0 0-.552 3.323c.643.113 1.302.155 1.894.155 4.468 0 5.946-2.572 7.42-6.328l8.718-21.747a1.875 1.875 0 0 0-1.212-2.352 1.872 1.872 0 0 0-2.326 1.138l-6.126 16.19h-.096L9.77 9.861a1.979 1.979 0 0 0-3.67 1.463l8.115 19.796Z"/></svg>
